source/img/contacts-icon-desktop.svg

<svg width="90" height="90" fill="none" xmlns="http://www.w3.org/2000/svg"><circle cx="45" cy="45" r="45" fill="#121936"/><path fill-rule="evenodd" clip-rule="evenodd" d="M44.9999 30.1724c-5.5929 0-11.1992.9453-13.2335 2.8295-1.6877 1.5632-2.2503 4.3247-2.44 6.0732 0 0-.0261.1728-.0261.2471 0 .6857.5886 1.2356 1.3082 1.2356.0851 0 3.2315-.241 5.1285-.3892.0457-.0063.0917-.0124.1373-.0247.7066-.0184 1.2758-.5622 1.2758-1.2356l.0063-2.4342c0-.7538.6479-1.3593 1.446-1.3593h12.7949c.7983 0 1.4462.6055 1.4462 1.3593l.0064 2.4342c0 .6734.5692 1.2172 1.2756 1.2356.0454.0124.0914.0184.1376.0247 1.8971.1481 5.0435.3892 5.1282.3892.7194 0 1.3084-.5499 1.3084-1.2356 0-.0743-.0261-.2471-.0261-.2471-.1898-1.7485-.7518-4.5099-2.4396-6.0732-2.0349-1.8842-7.6412-2.8295-13.2341-2.8295zm0 16.0631c-1.4457 0-2.6166 1.1058-2.6166 2.4712 0 1.3654 1.1709 2.4711 2.6166 2.4711s2.6166-1.1057 2.6166-2.4711-1.1709-2.4712-2.6166-2.4712zm-1.9624-5.5604v-1.5445c0-.8525-.7328-1.5445-1.6354-1.5445s-1.6353.6921-1.6353 1.5445v1.5445l-8.8249 8.9028c-.6081.5623-.9876 1.3466-.9876 2.2118v2.4774c0 1.3654 1.171 2.4712 2.6166 2.4712h.6542v1.5446c0 .8525.7328 1.5444 1.6354 1.5444s1.6353-.6919 1.6353-1.5444v-1.5446H53.504v1.5446c0 .8525.7325 1.5444 1.6354 1.5444.9026 0 1.6352-.6919 1.6352-1.5444v-1.5446h.6542c1.4457 0 2.6166-1.1058 2.6166-2.4712v-2.4774c0-.8652-.3795-1.6496-.9876-2.2118l-8.8246-8.9028v-1.5445c0-.8525-.7329-1.5445-1.6355-1.5445s-1.6352.6921-1.6352 1.5445v1.5445h-3.925zm1.9624 3.0892c2.8914 0 5.2333 2.2117 5.2333 4.9424 0 2.7308-2.3419 4.9427-5.2333 4.9427s-5.2332-2.2119-5.2332-4.9427c0-2.7307 2.3418-4.9424 5.2332-4.9424z" fill="#FFD74B"/></svg>

<svg width="90" height="90" viewBox="0 0 90 90" fill="none" xmlns="http://www.w3.org/2000/svg">
<circle cx="45" cy="45" r="45" fill="#121936"/>
<path fill-rule="evenodd" clip-rule="evenodd" d="M44.9999 30.1724C39.407 30.1724 33.8007 31.1177 31.7664 33.0019C30.0787 34.5651 29.5161 37.3266 29.3264 39.0751C29.3264 39.0751 29.3003 39.2479 29.3003 39.3222C29.3003 40.0079 29.8889 40.5578 30.6085 40.5578C30.6936 40.5578 33.84 40.3168 35.737 40.1686C35.7827 40.1623 35.8287 40.1562 35.8743 40.1439C36.5809 40.1255 37.1501 39.5817 37.1501 38.9083L37.1564 36.4741C37.1564 35.7203 37.8043 35.1148 38.6024 35.1148H51.3973C52.1956 35.1148 52.8435 35.7203 52.8435 36.4741L52.8499 38.9083C52.8499 39.5817 53.4191 40.1255 54.1255 40.1439C54.1709 40.1563 54.2169 40.1623 54.2631 40.1686C56.1602 40.3167 59.3066 40.5578 59.3913 40.5578C60.1107 40.5578 60.6997 40.0079 60.6997 39.3222C60.6997 39.2479 60.6736 39.0751 60.6736 39.0751C60.4838 37.3266 59.9218 34.5652 58.234 33.0019C56.1991 31.1177 50.5928 30.1724 44.9999 30.1724ZM44.9999 46.2355C43.5542 46.2355 42.3833 47.3413 42.3833 48.7067C42.3833 50.0721 43.5542 51.1778 44.9999 51.1778C46.4456 51.1778 47.6165 50.0721 47.6165 48.7067C47.6165 47.3413 46.4456 46.2355 44.9999 46.2355ZM43.0375 40.6751V39.1306C43.0375 38.2781 42.3047 37.5861 41.4021 37.5861C40.4995 37.5861 39.7668 38.2782 39.7668 39.1306V40.6751L30.9419 49.5779C30.3338 50.1402 29.9543 50.9245 29.9543 51.7897V54.2671C29.9543 55.6325 31.1253 56.7383 32.5709 56.7383H33.2251V58.2829C33.2251 59.1354 33.9579 59.8273 34.8605 59.8273C35.7631 59.8273 36.4958 59.1354 36.4958 58.2829V56.7383H53.504V58.2829C53.504 59.1354 54.2365 59.8273 55.1394 59.8273C56.042 59.8273 56.7746 59.1354 56.7746 58.2829V56.7383H57.4288C58.8745 56.7383 60.0454 55.6325 60.0454 54.2671V51.7897C60.0454 50.9245 59.6659 50.1401 59.0578 49.5779L50.2332 40.6751V39.1306C50.2332 38.2781 49.5003 37.5861 48.5977 37.5861C47.6951 37.5861 46.9625 38.2782 46.9625 39.1306V40.6751H43.0375ZM44.9999 43.7643C47.8913 43.7643 50.2332 45.976 50.2332 48.7067C50.2332 51.4375 47.8913 53.6494 44.9999 53.6494C42.1085 53.6494 39.7667 51.4375 39.7667 48.7067C39.7667 45.976 42.1085 43.7643 44.9999 43.7643Z" fill="#FFD74B"/>
</svg>
